svgs/duotone/pen-slash.svg

<svg xmlns="http://www.w3.org/2000/svg" viewBox="0 0 640 512"><!--! Font Awesome Pro 6.1.1 by @fontawesome - https://fontawesome.com License - https://fontawesome.com/license (Commercial License) Copyright 2022 Fonticons, Inc. --><defs><style>.fa-secondary{opacity:.4}</style></defs><path class="fa-primary" d="M5.112 9.196C13.29-1.236 28.37-3.065 38.81 5.112L630.8 469.1C641.2 477.3 643.1 492.4 634.9 502.8C626.7 513.2 611.6 515.1 601.2 506.9L9.196 42.89C-1.236 34.71-3.065 19.63 5.112 9.196V9.196z"/><path class="fa-secondary" d="M264.3 181.8L355.7 90.34L485.7 220.3L409.9 296L264.3 181.8zM122.6 323.5L195.8 250.3L341.2 364.8L252.5 453.4C242.1 463.8 229.2 471.5 215.1 475.6L94.77 511C86.35 513.5 77.24 511.2 71.03 504.1C64.82 498.8 62.5 489.7 64.98 481.2L100.4 360.9C104.5 346.8 112.2 333.9 122.6 323.5L122.6 323.5zM426.7 19.32C451.7-5.678 492.3-5.678 517.3 19.32L556.7 58.75C581.7 83.74 581.7 124.3 556.7 149.3L508.3 197.7L378.3 67.72L426.7 19.32z"/></svg>

<svg xmlns="http://www.w3.org/2000/svg" viewBox="0 0 640 512"><!--! Font Awesome Pro 6.4.2 by @fontawesome - https://fontawesome.com License - https://fontawesome.com/license (Commercial License) Copyright 2023 Fonticons, Inc. --><path class="fa-primary" style="fill:var(--fa-primary-color,inherit);opacity:var(--fa-primary-opacity,1);" d="M5.1 9.2C13.3-1.2 28.4-3.1 38.8 5.1l592 464c10.4 8.2 12.3 23.3 4.1 33.7s-23.3 12.3-33.7 4.1L9.2 42.9C-1.2 34.7-3.1 19.6 5.1 9.2z"/><path class="fa-secondary" style="fill:var(--fa-secondary-color,inherit);opacity:var(--fa-secondary-opacity,.4);" d="M195.8 250.3L341.2 364.8l-88.6 88.6c-10.4 10.4-23.3 18-37.4 22.2L94.8 511c-8.4 2.5-17.5 .2-23.7-6.1s-8.5-15.3-6.1-23.7l35.4-120.3c4.2-14.1 11.8-27 22.2-37.4l73.2-73.2zm289.9-30L409.9 296 264.3 181.8l91.5-91.5L485.7 220.3zm-58.9-201c25-25 65.5-25 90.5 0l39.4 39.4c25 25 25 65.5 0 90.5l-48.4 48.4L378.3 67.7l48.4-48.4z"/></svg>
